!!!COM:	Bach, Johann Sebastian
!!!CDT:	1685/02/21/-1750/07/28/
!!!OTL@@DE:	O Herre Gott, dein g&ouml;ttlich Wort
!!!SCT:	BWV 185/5
!!!PC#:	14
!!!AGN:	chorale
**kern	**kern	**kern	**kern
*ICvox	*ICvox	*ICvox	*ICvox
*Ibass	*Itenor	*Ialto	*Isoprn
*I"Bass	*I"Tenor	*I"Alto	*I"Soprano
*>[A,A,B]	*>[A,A,B]	*>[A,A,B]	*>[A,A,B]
*>norep[A,B]	*>norep[A,B]	*>norep[A,B]	*>norep[A,B]
*>A	*>A	*>A	*>A
*clefF4	*clefGv2	*clefG2	*clefG2
*k[f#]	*k[f#]	*k[f#]	*k[f#]
*G:	*G:	*G:	*G:
*M4/4	*M4/4	*M4/4	*M4/4
*met(c)	*met(c)	*met(c)	*met(c)
*MM100	*MM100	*MM100	*MM100
4G	4B	4d	4g
=1	=1	=1	=1
4E	4B	4e	4g
4BB	8BL	4d	4f#
.	8AJ	.	.
4C	4G	4c	4e
4D	4F#	4c	4d
=2	=2	=2	=2
4E	4G	4B	4g
4D	4F#	4d	4a
4GG;	4G;	4d;	4b;
4D	4F#	4d	4a
=3	=3	=3	=3
4BB	4F#	4d	8bL
.	.	.	16ccL
.	.	.	16ddJJ
8EEL	8GL	4e	4cc
8FF#J	8AJ	.	.
4GG	8BL	8dL	4b
.	8cJ	8eJ	.
4FF#	4d	4f#	8aL
.	.	.	8bJ
=4	=4	=4	=4
8EEL	8cL	[2g	4cc
8E	8dJ	.	.
8D	4e	.	4b
8CJ	.	.	.
2D	8AL	4g]	2a
.	8BJ	.	.
.	4c	4f#	.
=5	=5	=5	=5
2.GG;	2.B;	2.d;	2.g;
=:|!	=:|!	=:|!	=:|!
*>B	*>B	*>B	*>B
4G	4B	4d	4g
=6	=6	=6	=6
4D	4F#	4d	4a
4GG	4G	4d	4b
4C;	4G;	4e;	4g;
4BB	4B	4d	4g
=7	=7	=7	=7
4C#	8AL	4e	4a
.	8GJ	.	.
4D#	4F#	4f#	4b
4E;	4B;	4e;	4g;
8EL	8GL	4B	4e
8DJ	8F#J	.	.
=8	=8	=8	=8
8C#L	4E	8AL	4.a
8BBJ	.	8BJ	.
4AA	4A	4c#	.
.	.	.	8g
8DL	4A	4d	4f#
8C#	.	.	.
8BB	8GL	4d	8gL
8AAJ	8AJ	.	8f#J
=9	=9	=9	=9
4GG	4B	4d	2e
4AA	8AL	4c#	.
.	8GJ	.	.
4D;	4F#;	4A;	4d;
4BB	4F#	4B	4d
=10	=10	=10	=10
4EE	4G	8BL	4g
.	.	8c#J	.
8FF#L	[4A	4d	4f#
8GGJ	.	.	.
8AAL	8AL]	8cL	4e
8BBJ	8GJ	8BJ	.
4C	4F#	4A	4d
=11	=11	=11	=11
4BB	4G	4d	4g
4D	4F#	4d	4a
4GG;	4G;	4d;	4b;
8DL	4F#	8dL	4a
8CJ	.	8eJ	.
=12	=12	=12	=12
4BB	4.B	4f#	4.dd
8EL	.	8gL	.
8F#J	8A	8aJ	8cc
4G	8BL	8dL	4b
.	8cJ	8eJ	.
4F#	4d	4f#	8aL
.	.	.	8bJ
=13	=13	=13	=13
4E	8cL	[2g	4cc
.	8dJ	.	.
8DL	4e	.	4b
8CJ	.	.	.
2D	8AL	4g]	2a
.	8BJ	.	.
.	4c	4f#	.
=14	=14	=14	=14
2.GG;	2.B;	2.d;	2.g;
==	==	==	==
*-	*-	*-	*-
!!!hum2abc: -Q ''
!!!title: @{PC#}. @{OTL@@DE}
!!!YOR1: 371 vierstimmige Choralges&auml;nge von Johann Sebastian Bach, 
!!!YOR2: 4th ed. by Alfred D&ouml;rffel (Leipzig: Breitkopf und H&auml;rtel, 
!!!YOR2: c.1875). 178 pp. Plate "V.A.10".  reprint: J.S. Bach, 371 Four-Part 
!!!YOR4: Chorales (New York: Associated Music Publishers, Inc., c.1940).
!!!SMS: B&H, 4th ed, Alfred D&ouml;rffel, c.1875, plate V.A.10
!!!EED:  Craig Stuart Sapp
!!!EEV:  2009/05/22
!!!ONB: Fixed alignment error in measure 10 on 2011/02/07/.
